X:1
T:James Gibb editions
T:Irons-nous toujours coucher - Willaert
T:#
%%score [ 1 2 3 4 ]
L:1/8
Q:1/4=130
M:4/4
K:F
V:1 treble nm="Soprano" snm="S"
V:2 treble nm="Alto" snm="A"
V:3 treble-8 nm="Tenor" snm="T"
V:4 bass nm="Bass" snm="B"
V:1
"^Irons-nous toujours coucher""^Adrian Willaert\n(1490-1562)" F4 c4 | c4 d4 | B4 c4 | A8 | z8 | %5
w: I- rons|nous tou-|jours cou-|cher,||
 z8 | F4 c4 | c4 d4 | B4 c4 |[M:4/4] A8 | z8 | z8 | z8 | G4 A4 | B4 A4 | G4 A4 | B4 A4 | G4 A4 | %18
w: |I- rons|nous tou-|jours cou-|cher||||Sans guy-|ter- ne|sans lan-|ter- ne|Sans lu-|
 B4 A4 | z8 | z8 | z8 | G4 (G3 A | B2 A4 G2 | A3 G AB c2- | c2 BA B2 c2 | F6 ED) | C8 | z8 | z8 | %30
w: miè- re,||||sans clar\- *|||||té|||
 C4 c2 c2 | d4 B4 | c4 A4 | G4 G4 | F8 | z8 | z8 | z4 F4 | B4 c4 | d6 B2 | c4 A4 | G4 G4 | %42
w: I- rons nous|tou- jours|cou- cher|Sans sou-|per?|||I-|rons nous|tou- jours|cou- cher|Sans sou-|
 (F3 G A2 B2 | A2)[Q:1/4=127] (G3[Q:1/4=124] F[Q:1/4=123] E[Q:1/4=121]D | %44
w: per, * * *|* Sans * * *|
[Q:1/4=119] E2)[Q:1/4=115] (F4[Q:1/4=111] E2) |[Q:1/4=110] F16 |] %46
w: * sou\- *|per?|
V:2
 F6 F2 | E4 F4 | G4 E4 | F8 | z8 | z8 | z8 | C4 G4 | G4 (A3 G |[M:4/4] FE F4 ED) | E2 E2 (D4- | %11
w: I- rons|nous tou-|jours cou-|cher,||||I- rons|nous tou\- *||jours cou- cher|
 G,4) z4 | (C3 B, C2 D2 | G,2 G4) F2 | (GF_ED) C2 (D2 | G,2 G4) F2 | (_E2 D2) (C3 D | _ED) G4 ^F2 | %18
w: |Sans * * *|* * guy-|ter\- * * * ne sans|* * lan-|ter\- * ne *|* * Sans lu-|
 G4 D4 | z8 | z8 | D4 (F4 | _E6 DC | DCB,A, B,4) | A,8 | z8 | z8 | z4 C4 | G4 G4 | A4 F4 | G4 E4 | %31
w: miè- re,|||sans clar\-|||té|||I-|rons nous|tou- jours|cou- cher|
 D4 D4 | C8- | C8 | z8 | z4 C4 | G4 G4 | A6 F2 | G4 E4 | D4 D4 | C8 | z4 (C4 | F,2 F4 ED | %43
w: Sans sou-|per?|||I-|rons nous|tou- jours|cou- cher|Sans sou-|per,|Sans||
 E3 F E2 C2- | C2 B,2) C4 | C16 |] %46
w: |* * sou-|per?|
V:3
 z8 | z8 | z8 | F4 c4 | c4 d4 | B4 c4 | A8 | z8 | z8 |[M:4/4][K:treble-8] F4 c4 | c4 d4 | B4 c4 | %12
w: |||I- rons|nous tou-|jours cou-|cher,|||I- rons|nous tou-|jours cou-|
 A8 | z8 | z8 | z8 | G4 A4 | B4 A4 | G4 A4 | B4 A4 | G4 A4 | B4 A4 | z8 | z8 | z8 | G4 (G3 A | %26
w: cher||||Sans guy-|ter- ne|sans lan-|ter- ne|Sans lu-|miè- re,||||sans clar\- *|
 B2 A4 G2 | A3 G AB c2- | c2 BA B2 c2- | F6 ED) | C8 | z8 | z8 | C4 c2 c2 | d4 B4 | c4 A4 | G4 G4 | %37
w: ||||té|||I- rons nous|tou- jours|cou- cher|Sans sou-|
 F8 | z8 | z8 | z4 F4 | B4 c4 | d6 B2 | c4 A4 | G4 G4 | F16 |] %46
w: per?|||I-|rons nous|tou- jours|cou- cher|Sans sou-|per?|
V:4
 z8 | z8 | z8 | F,6 F,2 | E,4 F,4 | G,4 E,4 | F,8 | z8 | z8 |[M:4/4] z8 | C,4 G,4 | G,4 (A,3 G, | %12
w: |||I- rons|nous tou-|jours cou-|cher,||||I- rons|nous tou- *|
 F,E, F,4 E,D,) | E,2 E,2 (D,4 | G,,4) z4 | (C,3 B,, C,2 D,2 | G,,2 G,4) F,2 | %17
w: |jours cou- cher||Sans * * *|* * guy-|
 (G,F,_E,D,) C,2 (D,2 | G,,2 G,4) F,2 | (_E,2 D,2) (C,3 D, | _E,D,) G,4 ^F,2 | G,4 D,4 | z8 | z8 | %24
w: ter\- * * * ne sans|* * lan-|ter\- * ne *|* * Sans lu-|miè- re,|||
 D,4 (F,4 | _E,6 D,C, | D,C,B,,A,, B,,4) | A,,8 | z8 | z8 | z4 C,4 | G,4 G,4 | A,4 F,4 | G,4 E,4 | %34
w: sans clar\-|||té|||I-|rons nous|tou- jours|cou- cher|
 D,4 D,4 | C,8- | C,8 | z8 | z4 C,4 | G,4 G,4 | A,6 F,2 | G,4 E,4 | D,4 D,4 | C,8 | z4 C,4 | %45
w: Sans sou-|per?|||I-|rons nous|tou- jours|cou- cher|Sans sou-|per,|sou-|
 F,,16 |] %46
w: per?|

